exports/global-smallpox-cases_v1_850x600.svg

<svg xmlns="http://www.w3.org/2000/svg" version="1.1" style="background-color:#fff;-webkit-font-smoothing:antialiased" width="850" height="600" font-family="'Helvetica Neue',Helvetica,Arial,sans-serif" font-size="18" text-rendering="optimizeLegibility"><g class="ChartTab"><g class="HeaderView"><g opacity=".8" transform="matrix(.31 0 0 .31 770 15)"><a xmlns:xlink="http://www.w3.org/1999/xlink" xlink:href="https://ourworldindata.org" target="_blank"><g><path fill="#1B2543" d="M0 0h211.2v130.1H0z"/><path fill="#E63912" d="M0 112.2h211.2v17.9H0z"/><g><path fill="none" d="M1.2 12.3h210.2v99.2H1.2z"/><path fill="#FFF" d="M37.8 32.2c0 12.7-7.7 19.4-17.1 19.4-9.7 0-16.6-7.5-16.6-18.7 0-11.7 7.3-19.3 17.1-19.3 10.1.1 16.6 7.7 16.6 18.6zm-28.6.6c0 7.9 4.3 14.9 11.8 14.9 7.5 0 11.8-6.9 11.8-15.3 0-7.3-3.8-14.9-11.8-14.9-7.9 0-11.8 7.3-11.8 15.3zM62.7 43.8c0 2.7.1 5.1.2 7.2h-4.3l-.3-4.3h-.1c-1.3 2.1-4 4.9-8.8 4.9-4.2 0-9.1-2.3-9.1-11.6V24.6h4.8v14.6c0 5 1.5 8.4 5.9 8.4 3.2 0 5.5-2.2 6.3-4.4.3-.7.4-1.6.4-2.5V24.6h4.8v19.2zM67.3 32.8c0-3.1-.1-5.8-.2-8.2h4.2l.2 5.2h.2c1.2-3.5 4.1-5.8 7.3-5.8.5 0 .9.1 1.4.2v4.5c-.5-.1-1-.2-1.6-.2-3.4 0-5.8 2.6-6.5 6.2-.1.7-.2 1.4-.2 2.2V51h-4.8V32.8zM95.4 51L86 14.2h5l4.4 18.6c1.1 4.6 2.1 9.2 2.7 12.7h.1c.6-3.7 1.8-8 3-12.8l4.9-18.5h5l4.5 18.7c1 4.4 2 8.7 2.6 12.6h.1c.8-4 1.8-8.1 3-12.7l4.9-18.5h4.9L120.6 51h-5L111 31.9c-1.1-4.7-1.9-8.3-2.4-12h-.1c-.7 3.7-1.5 7.3-2.8 12L100.4 51h-5zM154.9 37.6c0 9.8-6.8 14-13.2 14-7.2 0-12.7-5.2-12.7-13.6 0-8.8 5.8-14 13.1-14 7.7 0 12.8 5.5 12.8 13.6zm-21 .3c0 5.8 3.3 10.1 8 10.1 4.6 0 8-4.3 8-10.3 0-4.5-2.2-10.1-7.9-10.1s-8.1 5.2-8.1 10.3zM158.2 32.8c0-3.1-.1-5.8-.2-8.2h4.2l.2 5.2h.2c1.2-3.5 4.1-5.8 7.3-5.8.5 0 .9.1 1.4.2v4.5c-.5-.1-1-.2-1.6-.2-3.4 0-5.8 2.6-6.5 6.2-.1.7-.2 1.4-.2 2.2V51h-4.8V32.8zM173.5 12.3h4.8V51h-4.8V12.3zM206.5 12.3v31.9c0 2.3.1 5 .2 6.8h-4.3l-.2-4.6h-.2c-1.5 2.9-4.7 5.2-9 5.2-6.4 0-11.3-5.4-11.3-13.4-.1-8.8 5.4-14.2 11.9-14.2 4 0 6.8 1.9 8 4h.1V12.3h4.8zm-4.8 23.1c0-.6-.1-1.4-.2-2a7 7 0 00-6.9-5.6c-5 0-7.9 4.4-7.9 10.2 0 5.3 2.6 9.8 7.8 9.8 3.2 0 6.2-2.1 7.1-5.7.2-.7.2-1.3.2-2.1v-4.6zM42.8 64c.1 1.6-1.1 2.9-3.1 2.9-1.7 0-2.9-1.3-2.9-2.9 0-1.7 1.3-3 3-3 1.9 0 3 1.3 3 3zm-5.4 33.8V71.4h4.8v26.4h-4.8zM47.5 78.6c0-2.7-.1-5-.2-7.1h4.3l.3 4.4h.1c1.3-2.5 4.4-5 8.8-5 3.7 0 9.4 2.2 9.4 11.2v15.8h-4.8V82.6c0-4.3-1.6-7.8-6.1-7.8-3.2 0-5.6 2.2-6.5 4.9-.2.6-.3 1.4-.3 2.2v15.9h-4.8V78.6zM84 61.6c2.9-.4 6.3-.8 10.1-.8 6.8 0 11.7 1.6 14.9 4.6 3.3 3 5.2 7.3 5.2 13.2 0 6-1.9 10.9-5.3 14.3-3.4 3.4-9.1 5.3-16.3 5.3-3.4 0-6.2-.2-8.6-.4V61.6zm4.8 32.5c1.2.2 3 .3 4.8.3 10.2 0 15.7-5.7 15.7-15.6.1-8.7-4.9-14.2-14.9-14.2-2.5 0-4.3.2-5.6.5v29zM132.1 97.8l-.4-3.3h-.2a9.79 9.79 0 01-8.1 3.9c-5.4 0-8.1-3.8-8.1-7.6 0-6.4 5.7-9.9 15.9-9.8v-.5c0-2.2-.6-6.1-6-6.1-2.5 0-5 .8-6.9 2l-1.1-3.2c2.2-1.4 5.4-2.3 8.7-2.3 8.1 0 10.1 5.5 10.1 10.8v9.9c0 2.3.1 4.5.4 6.3h-4.3zm-.7-13.4c-5.3-.1-11.2.8-11.2 5.9 0 3.1 2.1 4.6 4.5 4.6 3.4 0 5.6-2.2 6.4-4.4.2-.5.3-1 .3-1.5v-4.6zM146.6 63.9v7.6h6.9v3.7h-6.9v14.2c0 3.3.9 5.1 3.6 5.1 1.3 0 2.2-.2 2.8-.3l.2 3.6c-.9.4-2.4.7-4.3.7-2.2 0-4-.7-5.2-2-1.4-1.4-1.9-3.8-1.9-6.9V75.1h-4.1v-3.7h4.1v-6.3l4.8-1.2zM171.4 97.8l-.4-3.3h-.2a9.79 9.79 0 01-8.1 3.9c-5.4 0-8.1-3.8-8.1-7.6 0-6.4 5.7-9.9 15.9-9.8v-.5c0-2.2-.6-6.1-6-6.1-2.5 0-5 .8-6.9 2l-1.1-3.2c2.2-1.4 5.4-2.3 8.7-2.3 8.1 0 10.1 5.5 10.1 10.8v9.9c0 2.3.1 4.5.4 6.3h-4.3zm-.7-13.4c-5.3-.1-11.2.8-11.2 5.9 0 3.1 2.1 4.6 4.5 4.6 3.4 0 5.6-2.2 6.4-4.4.2-.5.3-1 .3-1.5v-4.6z"/></g></g></a></g><a href="https://ourworldindata.org/grapher/global-smallpox-cases" target="_blank"><text font-size="27" x="15" y="36.6" fill="#555"><tspan x="15" y="36.6">Global number of reported smallpox cases (1920-2010)</tspan></text></a></g><g class="StackedArea"><defs><clipPath id="a"><path d="M78.97 0h820v963h-820z"/></clipPath></defs><g class="AxisBoxView"><g class="HorizontalAxis" fill="#666" text-anchor="middle" font-size="16.2"><text x="79" y="556.5">1920</text><text x="224.5" y="556.5">1940</text><text x="370" y="556.5">1960</text><text x="515.5" y="556.5">1980</text><text x="661" y="556.5">2000</text><text x="777.4" y="556.5">2016</text></g><g class="VerticalAxis" fill="#666" dominant-baseline="middle" text-anchor="end" font-size="16.2"><text x="73.97" y="535.3">0</text><text x="73.97" y="462.6">100,000</text><text x="73.97" y="389.8">200,000</text><text x="73.97" y="317.1">300,000</text><text x="73.97" y="244.4">400,000</text><text x="73.97" y="171.6">500,000</text><text x="73.97" y="98.9">600,000</text></g><g class="AxisGridLines"><path stroke="#ccc" d="M78.97 535.3h698.45"/><path stroke="#ddd" stroke-dasharray="3,2" d="M78.97 462.6h698.45M78.97 389.8h698.45M78.97 317.1h698.45M78.97 244.4h698.45M78.97 171.6h698.45M78.97 98.9h698.45"/></g><g class="AxisGridLines" stroke="#ddd" stroke-dasharray="3,2"><path d="M79 535.3V75M224.5 535.3V75M370 535.3V75M515.5 535.3V75M661 535.3V75"/></g></g><g clip-path="url(#a)"><g class="HeightedLegend clickable"><g class="legendMark"><path fill="#000004" d="M782.42 534.05h10v2.5h-10z"/><text font-size="14.4" x="797.4" y="539.6" fill="#333"><tspan x="797.42" y="539.62">World</tspan></text></g></g><g class="Areas"><path d="M79 243.4l7.2 70.9 7.3 82.7 7.3 11.2 7.3-8.4 7.2-71.7 7.3-28.5 7.3-2.3 7.3 39.8 7.2 3.8 7.3-67.9 7.3 129.3 7.3-20.7 7.2-85 7.3.6 7.3-2.8 7.3 49.2 7.3 83.2 7.2 3.7 7.3-30.8 7.3-35.9 7.3 29 7.2 51.9 7.3-62.4 7.3-143.4 7.3 1.2 7.2 75 7.3 101.4 7.3 1L290 75l7.2 150.5 7.3-93.7 7.3 282 7.3 53 7.2-3.7 7.3 5.4 7.3-3.1 7.3-44 7.2-90.1 7.3 134 7.3 21.2 7.3-17.1 7.2-5.9 7.3-25.3 7.3 41.7 7.3-26.3 7.2 14.2 7.3-28.3 7.3 37.6 7.3 18.8 7.2 14.9 7.3-13.9 7.3-9 7.3-51.4 7.2-60 7.3 144.8 7.3 13.3 7.3-1.7 7.2 2.4H777.42 78.97" fill="#000004" fill-opacity=".7" class="World_0-area"/><path stroke-linecap="round" d="M79 243.4l7.2 70.9 7.3 82.7 7.3 11.2 7.3-8.4 7.2-71.7 7.3-28.5 7.3-2.3 7.3 39.8 7.2 3.8 7.3-67.9 7.3 129.3 7.3-20.7 7.2-85 7.3.6 7.3-2.8 7.3 49.2 7.3 83.2 7.2 3.7 7.3-30.8 7.3-35.9 7.3 29 7.2 51.9 7.3-62.4 7.3-143.4 7.3 1.2 7.2 75 7.3 101.4 7.3 1L290 75l7.2 150.5 7.3-93.7 7.3 282 7.3 53 7.2-3.7 7.3 5.4 7.3-3.1 7.3-44 7.2-90.1 7.3 134 7.3 21.2 7.3-17.1 7.2-5.9 7.3-25.3 7.3 41.7 7.3-26.3 7.2 14.2 7.3-28.3 7.3 37.6 7.3 18.8 7.2 14.9 7.3-13.9 7.3-9 7.3-51.4 7.2-60 7.3 144.8 7.3 13.3 7.3-1.7 7.2 2.4H777.4" stroke="#000003" stroke-opacity=".7" stroke-width=".5" fill="none" class="World_0-border"/></g></g></g><g class="SourcesFooter" fill="#777"><g class="clickable" fill="#777"><text font-size="12.6" x="15" y="581.6"><tspan x="15" y="581.58">Source: World Health Organization (2011)</tspan></text></g><text font-size="12.6" x="649" y="581.6"><tspan x="649.02" y="581.58"><a target="_blank" href="https://ourworldindata.org" fill="#777">OurWorldInData.org</a> • <a href="http://creativecommons.org/licenses/by-sa/4.0/deed.en_US" target="_blank" fill="#777">CC BY-SA</a></tspan></text></g></g></svg>

<svg xmlns="http://www.w3.org/2000/svg" version="1.1" style="font-family: 'Helvetica Neue', Helvetica, Arial, sans-serif; font-size: 18px; background-color: white; text-rendering: optimizeLegibility; -webkit-font-smoothing: antialiased;" width="850" height="600"><g class="ChartTab"><g class="HeaderView"><g opacity="0.8" transform="translate(770, 15) scale(0.31)"><a xmlns:xlink="http://www.w3.org/1999/xlink" xlink:href="https://ourworldindata.org" target="_blank"><g><rect x="0" y="0" fill="#1B2543" width="211.2" height="130.1"/><rect x="0" y="112.2" fill="#E63912" width="211.2" height="17.9"/><g><rect x="1.2" y="12.3" fill="none" width="210.2" height="99.2"/><path fill="#FFFFFF" d="M37.8,32.2c0,12.7-7.7,19.4-17.1,19.4c-9.7,0-16.6-7.5-16.6-18.7c0-11.7,7.3-19.3,17.1-19.3 C31.3,13.7,37.8,21.3,37.8,32.2z M9.2,32.8c0,7.9,4.3,14.9,11.8,14.9c7.5,0,11.8-6.9,11.8-15.3c0-7.3-3.8-14.9-11.8-14.9 C13.1,17.5,9.2,24.8,9.2,32.8z"/><path fill="#FFFFFF" d="M62.7,43.8c0,2.7,0.1,5.1,0.2,7.2h-4.3l-0.3-4.3h-0.1c-1.3,2.1-4,4.9-8.8,4.9c-4.2,0-9.1-2.3-9.1-11.6 V24.6h4.8v14.6c0,5,1.5,8.4,5.9,8.4c3.2,0,5.5-2.2,6.3-4.4c0.3-0.7,0.4-1.6,0.4-2.5V24.6h4.8V43.8z"/><path fill="#FFFFFF" d="M67.3,32.8c0-3.1-0.1-5.8-0.2-8.2h4.2l0.2,5.2h0.2c1.2-3.5,4.1-5.8,7.3-5.8c0.5,0,0.9,0.1,1.4,0.2v4.5 c-0.5-0.1-1-0.2-1.6-0.2c-3.4,0-5.8,2.6-6.5,6.2c-0.1,0.7-0.2,1.4-0.2,2.2V51h-4.8V32.8z"/><path fill="#FFFFFF" d="M95.4,51l-9.4-36.8h5l4.4,18.6c1.1,4.6,2.1,9.2,2.7,12.7h0.1c0.6-3.7,1.8-8,3-12.8l4.9-18.5h5l4.5,18.7 c1,4.4,2,8.7,2.6,12.6h0.1c0.8-4,1.8-8.1,3-12.7l4.9-18.5h4.9L120.6,51h-5L111,31.9c-1.1-4.7-1.9-8.3-2.4-12h-0.1 c-0.7,3.7-1.5,7.3-2.8,12L100.4,51H95.4z"/><path fill="#FFFFFF" d="M154.9,37.6c0,9.8-6.8,14-13.2,14c-7.2,0-12.7-5.2-12.7-13.6c0-8.8,5.8-14,13.1-14 C149.8,24,154.9,29.5,154.9,37.6z M133.9,37.9c0,5.8,3.3,10.1,8,10.1c4.6,0,8-4.3,8-10.3c0-4.5-2.2-10.1-7.9-10.1 C136.3,27.6,133.9,32.8,133.9,37.9z"/><path fill="#FFFFFF" d="M158.2,32.8c0-3.1-0.1-5.8-0.2-8.2h4.2l0.2,5.2h0.2c1.2-3.5,4.1-5.8,7.3-5.8c0.5,0,0.9,0.1,1.4,0.2v4.5 c-0.5-0.1-1-0.2-1.6-0.2c-3.4,0-5.8,2.6-6.5,6.2c-0.1,0.7-0.2,1.4-0.2,2.2V51h-4.8V32.8z"/><path fill="#FFFFFF" d="M173.5,12.3h4.8V51h-4.8V12.3z"/><path fill="#FFFFFF" d="M206.5,12.3v31.9c0,2.3,0.1,5,0.2,6.8h-4.3l-0.2-4.6H202c-1.5,2.9-4.7,5.2-9,5.2 c-6.4,0-11.3-5.4-11.3-13.4c-0.1-8.8,5.4-14.2,11.9-14.2c4,0,6.8,1.9,8,4h0.1V12.3H206.5z M201.7,35.4c0-0.6-0.1-1.4-0.2-2 c-0.7-3.1-3.3-5.6-6.9-5.6c-5,0-7.9,4.4-7.9,10.2c0,5.3,2.6,9.8,7.8,9.8c3.2,0,6.2-2.1,7.1-5.7c0.2-0.7,0.2-1.3,0.2-2.1V35.4z"/><path fill="#FFFFFF" d="M42.8,64c0.1,1.6-1.1,2.9-3.1,2.9c-1.7,0-2.9-1.3-2.9-2.9c0-1.7,1.3-3,3-3C41.7,61,42.8,62.3,42.8,64z M37.4,97.8V71.4h4.8v26.4H37.4z"/><path fill="#FFFFFF" d="M47.5,78.6c0-2.7-0.1-5-0.2-7.1h4.3l0.3,4.4h0.1c1.3-2.5,4.4-5,8.8-5c3.7,0,9.4,2.2,9.4,11.2v15.8h-4.8 V82.6c0-4.3-1.6-7.8-6.1-7.8c-3.2,0-5.6,2.2-6.5,4.9c-0.2,0.6-0.3,1.4-0.3,2.2v15.9h-4.8V78.6z"/><path fill="#FFFFFF" d="M84,61.6c2.9-0.4,6.3-0.8,10.1-0.8c6.8,0,11.7,1.6,14.9,4.6c3.3,3,5.2,7.3,5.2,13.2c0,6-1.9,10.9-5.3,14.3 c-3.4,3.4-9.1,5.3-16.3,5.3c-3.4,0-6.2-0.2-8.6-0.4V61.6z M88.8,94.1c1.2,0.2,3,0.3,4.8,0.3c10.2,0,15.7-5.7,15.7-15.6 c0.1-8.7-4.9-14.2-14.9-14.2c-2.5,0-4.3,0.2-5.6,0.5V94.1z"/><path fill="#FFFFFF" d="M132.1,97.8l-0.4-3.3h-0.2c-1.5,2.1-4.3,3.9-8.1,3.9c-5.4,0-8.1-3.8-8.1-7.6c0-6.4,5.7-9.9,15.9-9.8v-0.5 c0-2.2-0.6-6.1-6-6.1c-2.5,0-5,0.8-6.9,2l-1.1-3.2c2.2-1.4,5.4-2.3,8.7-2.3c8.1,0,10.1,5.5,10.1,10.8v9.9c0,2.3,0.1,4.5,0.4,6.3 H132.1z M131.4,84.4c-5.3-0.1-11.2,0.8-11.2,5.9c0,3.1,2.1,4.6,4.5,4.6c3.4,0,5.6-2.2,6.4-4.4c0.2-0.5,0.3-1,0.3-1.5V84.4z"/><path fill="#FFFFFF" d="M146.6,63.9v7.6h6.9v3.7h-6.9v14.2c0,3.3,0.9,5.1,3.6,5.1c1.3,0,2.2-0.2,2.8-0.3l0.2,3.6 c-0.9,0.4-2.4,0.7-4.3,0.7c-2.2,0-4-0.7-5.2-2c-1.4-1.4-1.9-3.8-1.9-6.9V75.1h-4.1v-3.7h4.1v-6.3L146.6,63.9z"/><path fill="#FFFFFF" d="M171.4,97.8l-0.4-3.3h-0.2c-1.5,2.1-4.3,3.9-8.1,3.9c-5.4,0-8.1-3.8-8.1-7.6c0-6.4,5.7-9.9,15.9-9.8v-0.5 c0-2.2-0.6-6.1-6-6.1c-2.5,0-5,0.8-6.9,2l-1.1-3.2c2.2-1.4,5.4-2.3,8.7-2.3c8.1,0,10.1,5.5,10.1,10.8v9.9c0,2.3,0.1,4.5,0.4,6.3 H171.4z M170.7,84.4c-5.3-0.1-11.2,0.8-11.2,5.9c0,3.1,2.1,4.6,4.5,4.6c3.4,0,5.6-2.2,6.4-4.4c0.2-0.5,0.3-1,0.3-1.5V84.4z"/></g></g></a></g><a href="https://ourworldindata.org/grapher/global-smallpox-cases" target="_blank"><text font-size="27.00" x="15.0" y="36.6" fill="#555"><tspan x="15" y="36.6">Global number of reported smallpox cases (1920-2010)</tspan></text></a></g><g class="StackedArea"><defs><clipPath id="boundsClip-82"><rect x="78.968" y="0" width="820" height="963"></rect></clipPath></defs><g class="AxisBoxView"><g class="HorizontalAxis"><text x="79" y="556.5" fill="#666" text-anchor="middle" font-size="16.2">1920</text><text x="224.5" y="556.5" fill="#666" text-anchor="middle" font-size="16.2">1940</text><text x="370" y="556.5" fill="#666" text-anchor="middle" font-size="16.2">1960</text><text x="515.5" y="556.5" fill="#666" text-anchor="middle" font-size="16.2">1980</text><text x="661" y="556.5" fill="#666" text-anchor="middle" font-size="16.2">2000</text><text x="777.4" y="556.5" fill="#666" text-anchor="middle" font-size="16.2">2016</text></g><g class="VerticalAxis"><text x="73.97" y="535.3" fill="#666" dominant-baseline="middle" text-anchor="end" font-size="16.2">0</text><text x="73.97" y="462.6" fill="#666" dominant-baseline="middle" text-anchor="end" font-size="16.2">100,000</text><text x="73.97" y="389.8" fill="#666" dominant-baseline="middle" text-anchor="end" font-size="16.2">200,000</text><text x="73.97" y="317.1" fill="#666" dominant-baseline="middle" text-anchor="end" font-size="16.2">300,000</text><text x="73.97" y="244.4" fill="#666" dominant-baseline="middle" text-anchor="end" font-size="16.2">400,000</text><text x="73.97" y="171.6" fill="#666" dominant-baseline="middle" text-anchor="end" font-size="16.2">500,000</text><text x="73.97" y="98.9" fill="#666" dominant-baseline="middle" text-anchor="end" font-size="16.2">600,000</text></g><g class="AxisGridLines"><line x1="78.97" y1="535.3" x2="777.42" y2="535.3" stroke="#ccc"></line><line x1="78.97" y1="462.6" x2="777.42" y2="462.6" stroke="#ddd" stroke-dasharray="3,2"></line><line x1="78.97" y1="389.8" x2="777.42" y2="389.8" stroke="#ddd" stroke-dasharray="3,2"></line><line x1="78.97" y1="317.1" x2="777.42" y2="317.1" stroke="#ddd" stroke-dasharray="3,2"></line><line x1="78.97" y1="244.4" x2="777.42" y2="244.4" stroke="#ddd" stroke-dasharray="3,2"></line><line x1="78.97" y1="171.6" x2="777.42" y2="171.6" stroke="#ddd" stroke-dasharray="3,2"></line><line x1="78.97" y1="98.9" x2="777.42" y2="98.9" stroke="#ddd" stroke-dasharray="3,2"></line></g><g class="AxisGridLines"><line x1="79" y1="535.30" x2="79" y2="75.00" stroke="#ddd" stroke-dasharray="3,2"></line><line x1="224.5" y1="535.30" x2="224.5" y2="75.00" stroke="#ddd" stroke-dasharray="3,2"></line><line x1="370" y1="535.30" x2="370" y2="75.00" stroke="#ddd" stroke-dasharray="3,2"></line><line x1="515.5" y1="535.30" x2="515.5" y2="75.00" stroke="#ddd" stroke-dasharray="3,2"></line><line x1="661" y1="535.30" x2="661" y2="75.00" stroke="#ddd" stroke-dasharray="3,2"></line></g></g><g clip-path="url(#boundsClip-82)"><g class="HeightedLegend clickable"><g class="legendMark"><rect x="782.4159999999999" y="528.0999999999999" width="52.584" height="14.4" fill="#fff" opacity="0"></rect><rect x="782.4159999999999" y="534.05" width="10" height="2.5" fill="rgb(0, 0, 4)"></rect><text font-size="14.40" x="797.4" y="539.6" fill="#333"><tspan x="797.4159999999999" y="539.6199999999999">World</tspan></text></g></g><g class="Areas"><rect x="78.968" y="75" width="698.448" height="460.29999999999995" opacity="0" fill="rgba(255,255,255,0)"></rect><path stroke-linecap="round" d="M79 243.4L86.2 314.3L93.5 397L100.8 408.2L108.1 399.8L115.3 328.1L122.6 299.6L129.9 297.3L137.2 337.1L144.4 340.9L151.7 273L159 402.3L166.3 381.6L173.5 296.6L180.8 297.2L188.1 294.4L195.4 343.6L202.7 426.8L209.9 430.5L217.2 399.7L224.5 363.8L231.8 392.8L239 444.7L246.3 382.3L253.6 238.9L260.9 240.1L268.1 315.1L275.4 416.5L282.7 417.5L290 75L297.2 225.5L304.5 131.8L311.8 413.8L319.1 466.8L326.3 463.1L333.6 468.5L340.9 465.4L348.2 421.4L355.4 331.3L362.7 465.3L370 486.5L377.3 469.4L384.5 463.5L391.8 438.2L399.1 479.9L406.4 453.6L413.6 467.8L420.9 439.5L428.2 477.1L435.5 495.9L442.7 510.8L450 496.9L457.3 487.9L464.6 436.5L471.8 376.5L479.1 521.3L486.4 534.6L493.7 532.9L500.9 535.3L508.2 535.3L515.5 535.3L522.8 535.3L530 535.3L537.3 535.3L544.6 535.3L551.9 535.3L559.2 535.3L566.4 535.3L573.7 535.3L581 535.3L588.3 535.3L595.5 535.3L602.8 535.3L610.1 535.3L617.4 535.3L624.6 535.3L631.9 535.3L639.2 535.3L646.5 535.3L653.7 535.3L661 535.3L668.3 535.3L675.6 535.3L682.8 535.3L690.1 535.3L697.4 535.3L704.7 535.3L711.9 535.3L719.2 535.3L726.5 535.3L733.8 535.3L741 535.3L748.3 535.3L755.6 535.3L762.9 535.3L770.1 535.3L777.4 535.3L777.4159999999999 535.3L78.968 535.3" fill="rgb(0, 0, 4)" fill-opacity="0.7" class="World_0-area"></path><path stroke-linecap="round" d="M79 243.4L86.2 314.3L93.5 397L100.8 408.2L108.1 399.8L115.3 328.1L122.6 299.6L129.9 297.3L137.2 337.1L144.4 340.9L151.7 273L159 402.3L166.3 381.6L173.5 296.6L180.8 297.2L188.1 294.4L195.4 343.6L202.7 426.8L209.9 430.5L217.2 399.7L224.5 363.8L231.8 392.8L239 444.7L246.3 382.3L253.6 238.9L260.9 240.1L268.1 315.1L275.4 416.5L282.7 417.5L290 75L297.2 225.5L304.5 131.8L311.8 413.8L319.1 466.8L326.3 463.1L333.6 468.5L340.9 465.4L348.2 421.4L355.4 331.3L362.7 465.3L370 486.5L377.3 469.4L384.5 463.5L391.8 438.2L399.1 479.9L406.4 453.6L413.6 467.8L420.9 439.5L428.2 477.1L435.5 495.9L442.7 510.8L450 496.9L457.3 487.9L464.6 436.5L471.8 376.5L479.1 521.3L486.4 534.6L493.7 532.9L500.9 535.3L508.2 535.3L515.5 535.3L522.8 535.3L530 535.3L537.3 535.3L544.6 535.3L551.9 535.3L559.2 535.3L566.4 535.3L573.7 535.3L581 535.3L588.3 535.3L595.5 535.3L602.8 535.3L610.1 535.3L617.4 535.3L624.6 535.3L631.9 535.3L639.2 535.3L646.5 535.3L653.7 535.3L661 535.3L668.3 535.3L675.6 535.3L682.8 535.3L690.1 535.3L697.4 535.3L704.7 535.3L711.9 535.3L719.2 535.3L726.5 535.3L733.8 535.3L741 535.3L748.3 535.3L755.6 535.3L762.9 535.3L770.1 535.3L777.4 535.3" stroke="rgb(0, 0, 3)" stroke-opacity="0.7" stroke-width="0.5" fill="none" class="World_0-border"></path></g></g></g><g style="fill: #777;" class="SourcesFooter"><g style="fill: #777;" class="clickable"><text font-size="12.60" x="15.0" y="581.6"><tspan x="15" y="581.58">Source: World Health Organization (2011)</tspan></text></g><text font-size="12.60" x="649.0" y="581.6"><tspan x="649.024" y="581.58"><a target='_blank' style='fill: #777;' href='https://ourworldindata.org'>OurWorldInData.org</a> • <a style="fill: #777;" href="http://creativecommons.org/licenses/by-sa/4.0/deed.en_US" target="_blank">CC BY-SA</a></tspan></text></g></g></svg>
